X: 062
M: C
L: 1/8
K: Ador
e | abae (ab)ag | egdg Bdgb | agef gdBg | ecBe  cA-A ||
e | abae (ab)ag | egdg Bdgb | agea gedB | cdB^g aA-A |]


